boxicons/svg/regular/bx-sort-up.svg

<svg xmlns="http://www.w3.org/2000/svg" width="24" height="24" viewBox="0 0 24 24"><path d="M11 9h9v2h-9zm0 4h7v2h-7zm0-8h11v2H11zm0 12h5v2h-5zm-6 3h2V8h3L6 4 2 8h3z"/></svg>

<svg xmlns="http://www.w3.org/2000/svg" width="24" height="24" viewBox="0 0 24 24"><path d="M11 9H20V11H11zM11 13H18V15H11zM11 5H22V7H11zM11 17H16V19H11zM5 20L7 20 7 8 10 8 6 4 2 8 5 8z"/></svg>
